build/Karasa-Jaga/scalable/apps/help-browser-symbolic.svg

<svg height="16" width="16" xmlns="http://www.w3.org/2000/svg"><g fill="#bebebe"><path d="m8 .5c-4.1374554 0-7.5 3.3625446-7.5 7.5 0 4.137455 3.3625446 7.5 7.5 7.5 4.137455 0 7.5-3.362545 7.5-7.5 0-4.1374554-3.362545-7.5-7.5-7.5zm0 .625c3.800468 0 6.875 3.0745319 6.875 6.875 0 3.800468-3.074532 6.875-6.875 6.875-3.8004681 0-6.875-3.074532-6.875-6.875 0-3.8004681 3.0745319-6.875 6.875-6.875z"/><path d="m9.1875 1.59375v2.90625a3.7171077 3.7285108.00025033 0 1 1.53125.96875 3.7171077 3.7285108.00025033 0 1 .875 1.28125h2.8125a6.5136606 6.5336429.00025033 0 0 -1.625-3.1875 6.4921993 6.5121157.00025033 0 0 -3.59375-1.96875zm-2.375.03125a6.4921993 6.5121157.00025033 0 0 -5.1875 5.125h2.90625a3.7171077 3.7285108.00025033 0 1 2.28125-2.25zm-5.21875 7.5a6.4921993 6.5121157.00025033 0 0 1.625 3.3125 6.5136606 6.5336429.00025033 0 0 3.59375 1.96875v-2.75a3.7171077 3.7285108.00025033 0 1 -1.53125-1.125 3.7171077 3.7285108.00025033 0 1 -.78125-1.40625zm10.15625 0a3.7171077 3.7285108.00025033 0 1 -2.5625 2.625v2.6875a6.5136606 6.5336429.00025033 0 0 5.25-5.3125z"/><path d="m8 4.71875c-1.8101803 0-3.28125 1.4710697-3.28125 3.28125 0 1.8101802 1.4710697 3.28125 3.28125 3.28125 1.8101802 0 3.28125-1.4710698 3.28125-3.28125 0-1.8101803-1.4710698-3.28125-3.28125-3.28125zm0 .59375c1.4796014 0 2.6875 1.2078985 2.6875 2.6875 0 1.4796014-1.2078986 2.6875-2.6875 2.6875-1.4796015 0-2.6875-1.2078986-2.6875-2.6875 0-1.4796015 1.2078985-2.6875 2.6875-2.6875z"/></g></svg>

<?xml version="1.0" encoding="UTF-8" standalone="no"?>
<!-- Created with Inkscape (http://www.inkscape.org/) -->

<svg
   xmlns:dc="http://purl.org/dc/elements/1.1/"
   xmlns:cc="http://creativecommons.org/ns#"
   xmlns:rdf="http://www.w3.org/1999/02/22-rdf-syntax-ns#"
   xmlns:svg="http://www.w3.org/2000/svg"
   xmlns="http://www.w3.org/2000/svg"
   xmlns:sodipodi="http://sodipodi.sourceforge.net/DTD/sodipodi-0.dtd"
   xmlns:inkscape="http://www.inkscape.org/namespaces/inkscape"
   id="svg7384"
   height="16"
   width="16"
   version="1.1"
   inkscape:version="0.48.3.1 r9886"
   sodipodi:docname="system-help-symbolic.svg">
  <defs
     id="defs6070" />
  <sodipodi:namedview
     pagecolor="#ffffff"
     bordercolor="#666666"
     borderopacity="1"
     objecttolerance="10"
     gridtolerance="10"
     guidetolerance="10"
     inkscape:pageopacity="0"
     inkscape:pageshadow="2"
     inkscape:window-width="1366"
     inkscape:window-height="714"
     id="namedview6068"
     showgrid="false"
     inkscape:zoom="5.2149125"
     inkscape:cx="-33.196143"
     inkscape:cy="-24.538438"
     inkscape:window-x="0"
     inkscape:window-y="22"
     inkscape:window-maximized="1"
     inkscape:current-layer="svg7384" />
  <metadata
     id="metadata90">
    <rdf:RDF>
      <cc:Work
         rdf:about="">
        <dc:format>image/svg+xml</dc:format>
        <dc:type
           rdf:resource="http://purl.org/dc/dcmitype/StillImage" />
        <dc:title>Gnome Symbolic Icon Theme</dc:title>
      </cc:Work>
    </rdf:RDF>
  </metadata>
  <title
     id="title9167">Gnome Symbolic Icon Theme</title>
  <path
     style="fill:#bebebe;fill-opacity:1;stroke:none"
     d="M 8 0.5 C 3.8625446 0.5 0.5 3.8625446 0.5 8 C 0.5 12.137455 3.8625446 15.5 8 15.5 C 12.137455 15.5 15.5 12.137455 15.5 8 C 15.5 3.8625446 12.137455 0.5 8 0.5 z M 8 1.125 C 11.800468 1.125 14.875 4.1995319 14.875 8 C 14.875 11.800468 11.800468 14.875 8 14.875 C 4.1995319 14.875 1.125 11.800468 1.125 8 C 1.125 4.1995319 4.1995319 1.125 8 1.125 z "
     id="path6223" />
  <path
     style="fill:#bebebe"
     d="M 9.1875 1.59375 L 9.1875 4.5 A 3.7171077 3.7285108 0.00025033085 0 1 10.71875 5.46875 A 3.7171077 3.7285108 0.00025033085 0 1 11.59375 6.75 L 14.40625 6.75 A 6.5136606 6.5336429 0.00025033085 0 0 12.78125 3.5625 A 6.4921993 6.5121157 0.00025033085 0 0 9.1875 1.59375 z M 6.8125 1.625 A 6.4921993 6.5121157 0.00025033085 0 0 1.625 6.75 L 4.53125 6.75 A 3.7171077 3.7285108 0.00025033085 0 1 6.8125 4.5 L 6.8125 1.625 z M 1.59375 9.125 A 6.4921993 6.5121157 0.00025033085 0 0 3.21875 12.4375 A 6.5136606 6.5336429 0.00025033085 0 0 6.8125 14.40625 L 6.8125 11.65625 A 3.7171077 3.7285108 0.00025033085 0 1 5.28125 10.53125 A 3.7171077 3.7285108 0.00025033085 0 1 4.5 9.125 L 1.59375 9.125 z M 11.75 9.125 A 3.7171077 3.7285108 0.00025033085 0 1 9.1875 11.75 L 9.1875 14.4375 A 6.5136606 6.5336429 0.00025033085 0 0 14.4375 9.125 L 11.75 9.125 z "
     id="path5579" />
  <path
     style="fill:#bebebe;fill-opacity:1;stroke:none"
     d="M 8 4.71875 C 6.1898197 4.71875 4.71875 6.1898197 4.71875 8 C 4.71875 9.8101802 6.1898197 11.28125 8 11.28125 C 9.8101802 11.28125 11.28125 9.8101802 11.28125 8 C 11.28125 6.1898197 9.8101802 4.71875 8 4.71875 z M 8 5.3125 C 9.4796014 5.3125 10.6875 6.5203985 10.6875 8 C 10.6875 9.4796014 9.4796014 10.6875 8 10.6875 C 6.5203985 10.6875 5.3125 9.4796014 5.3125 8 C 5.3125 6.5203985 6.5203985 5.3125 8 5.3125 z "
     id="path6228" />
</svg>
